X:6358
T:Swamplake Breakdown, The
O:england
R:Breakdown
M:2/4
L:1/16
K:G
D2|"G"G2B2 BcdB|"C"c2c2 efge|"G"d2B2 cBAG|"D7"F2A2A2D2|
"G"G2B2 BcdB|"C"c2c2 efge|"G"d2B2 "D7"cBAF|"G"G2B2G2:|
|:ef|"G"g2ga gfed|"C"cBcd efge|"G"d2B2 "C"cBAG|"D7"F2A2A2 ef|
"G"g2ga gfed|"C"cBcd efge|"G"d2B2 "D7"cBAF|"G"G2B2G2:|]
